X: 229
T:Father O'Grady's Visit to Bocca
T:McDermott's
M:4/4
L:1/8
C:Josie McDermott
R:reel
Z: Rachel Marsh
K:D
Adde fded|ABAG EFDe|fded cAAG|EFGE D2de|
fded ~A3G|EFGE ABde|fded cAAG|EFGE D2FG:|
|:Adde fage|d2 ed cAAF|~G3A GE~E2|edcA GE~E2|
Adde fage|dfed cA ~A2|fefa ge ~e2|fage d2FG:|

